X: 13182
T: First Rule Of Box Club, The
R: reel
M: 4/4
K: Cdorian
|ECB,C G,2 B,(C|C)EFE G2 FE|G2 cG BGF(G|G)EFG FECB,|
ECB,C G,2 B,(C|C)EFE G2 FE|G2 cG BGFG|1 ECB,G, C2 CB,:|2 ECB,G, C2 C/C/C||
|:G2 cG BGF(G|G)ccG dcBF|G2 cG BGF(G|G)EFG FEFG|
G2 cG BGF(G|G)ccG d2 d/d/d|edc(d d)Bcd|1 cBGF GFEF:|2 cBGF ECB,G,||

